dist/images/icons/facebook.svg

<svg width="44" height="44" viewBox="0 0 44 44" fill="none" xmlns="http://www.w3.org/2000/svg">
<path d="M44 22C44 9.84973 34.1503 0 22 0C9.84973 0 0 9.84973 0 22C0 32.9807 8.04504 42.0823 18.5625 43.7327V28.3594H12.9766V22H18.5625V17.1531C18.5625 11.6394 21.847 8.59375 26.8722 8.59375C29.2785 8.59375 31.7969 9.02344 31.7969 9.02344V14.4375H29.0228C26.29 14.4375 25.4375 16.1335 25.4375 17.875V22H31.5391L30.5637 28.3594H25.4375V43.7327C35.955 42.0823 44 32.9807 44 22Z" fill="white"/>
</svg>

<svg width="44" height="44" fill="none" xmlns="http://www.w3.org/2000/svg"><path d="M44 22C44 9.85 34.15 0 22 0S0 9.85 0 22c0 10.98 8.045 20.082 18.563 21.733V28.359h-5.586V22h5.585v-4.847c0-5.514 3.285-8.56 8.31-8.56 2.407 0 4.925.43 4.925.43v5.415h-2.774c-2.733 0-3.585 1.696-3.585 3.437V22h6.101l-.975 6.36h-5.127v15.373C35.956 42.083 44 32.98 44 22z" fill="#fff"/></svg>
